Sources/FrostedUI/Resources/Icons.xcassets/checklist32.imageset/checklist-32.svg

<svg width="32" height="32" viewBox="0 0 32 32" fill="none" xmlns="http://www.w3.org/2000/svg" data-fui-icon="true">
  <path
    d="M16.75 11.5C16.3358 11.5 16 11.8358 16 12.25 16 12.6642 16.3358 13 16.75 13H22.25C22.6642 13 23 12.6642 23 12.25 23 11.8358 22.6642 11.5 22.25 11.5H16.75zM16 18.25C16 17.8358 16.3358 17.5 16.75 17.5H22.25C22.6642 17.5 23 17.8358 23 18.25 23 18.6642 22.6642 19 22.25 19H16.75C16.3358 19 16 18.6642 16 18.25zM16.75 23.5C16.3358 23.5 16 23.8358 16 24.25 16 24.6642 16.3358 25 16.75 25H22.25C22.6642 25 23 24.6642 23 24.25 23 23.8358 22.6642 23.5 22.25 23.5H16.75zM13.7517 10.1925C14.0596 10.4696 14.0846 10.9438 13.8075 11.2517L11.5575 13.7517C11.4119 13.9135 11.2033 14.004 10.9857 13.9999 10.7682 13.9957 10.5631 13.8973 10.4238 13.7301L9.17383 12.2301C8.90866 11.9119 8.95165 11.439 9.26986 11.1738 9.58807 10.9087 10.061 10.9517 10.3262 11.2699L11.0218 12.1046 12.6925 10.2483C12.9696 9.94039 13.4438 9.91543 13.7517 10.1925zM13.8075 17.2517C14.0846 16.9438 14.0596 16.4696 13.7517 16.1925 13.4438 15.9154 12.9696 15.9404 12.6925 16.2483L11.0218 18.1046 10.3262 17.2699C10.061 16.9517 9.58807 16.9087 9.26986 17.1738 8.95165 17.439 8.90866 17.9119 9.17383 18.2301L10.4238 19.7301C10.5631 19.8973 10.7682 19.9957 10.9857 19.9999 11.2033 20.004 11.4119 19.9135 11.5575 19.7517L13.8075 17.2517zM13.7517 22.1925C14.0596 22.4696 14.0846 22.9438 13.8075 23.2517L11.5575 25.7517C11.4119 25.9135 11.2033 26.004 10.9857 25.9999 10.7682 25.9957 10.5631 25.8973 10.4238 25.7301L9.17383 24.2301C8.90866 23.9119 8.95165 23.439 9.26986 23.1738 9.58807 22.9087 10.061 22.9517 10.3262 23.2699L11.0218 24.1046 12.6925 22.2483C12.9696 21.9404 13.4438 21.9154 13.7517 22.1925z"
    fill="currentColor"
  />
  <path
    fill-rule="evenodd"
    clip-rule="evenodd"
    d="M14.9547 0.5C14.2151 0.5 13.5554 0.964924 13.3067 1.66141L13.0072 2.5H11.2513C10.3708 2.5 9.63929 3.15101 9.51774 4H7.75C5.95507 4 4.5 5.45507 4.5 7.25V27.75C4.5 29.5449 5.95507 31 7.75 31H24.25C26.0449 31 27.5 29.5449 27.5 27.75V7.25C27.5 5.45507 26.0449 4 24.25 4H22.4823C22.3607 3.15101 21.6292 2.5 20.7487 2.5H18.9928L18.6933 1.66141C18.4446 0.964925 17.7849 0.5 17.0453 0.5H14.9547ZM14.7193 2.16592C14.7548 2.06642 14.8491 2 14.9547 2H17.0453C17.1509 2 17.2452 2.06642 17.2807 2.16592L17.758 3.50225C17.8646 3.80075 18.1473 4 18.4643 4H20.7487C20.888 4 21 4.1132 21 4.25V5.75C21 5.88807 20.8881 6 20.75 6H11.25C11.1119 6 11 5.88807 11 5.75V4.25C11 4.1132 11.112 4 11.2513 4H13.5357C13.8527 4 14.1354 3.80075 14.242 3.50225L14.7193 2.16592ZM26 7.25C26 6.2835 25.2165 5.5 24.25 5.5H22.5V5.75C22.5 6.7165 21.7165 7.5 20.75 7.5H11.25C10.2835 7.5 9.5 6.7165 9.5 5.75V5.5H7.75C6.7835 5.5 6 6.2835 6 7.25V27.75C6 28.7165 6.7835 29.5 7.75 29.5H24.25C25.2165 29.5 26 28.7165 26 27.75V7.25Z"
    fill="currentColor"
  />
</svg>

<svg xmlns="http://www.w3.org/2000/svg" width="32" height="32" fill="none" data-fui-icon="true" viewBox="0 0 32 32"><path fill="currentColor" d="M16.75 11.5a.75.75 0 0 0 0 1.5h5.5a.75.75 0 0 0 0-1.5zM16 18.25a.75.75 0 0 1 .75-.75h5.5a.75.75 0 0 1 0 1.5h-5.5a.75.75 0 0 1-.75-.75m.75 5.25a.75.75 0 0 0 0 1.5h5.5a.75.75 0 0 0 0-1.5zm-2.998-13.307a.75.75 0 0 1 .055 1.059l-2.25 2.5a.75.75 0 0 1-1.133-.022l-1.25-1.5a.75.75 0 1 1 1.152-.96l.696.835 1.67-1.857a.75.75 0 0 1 1.06-.055m.055 7.059a.75.75 0 1 0-1.114-1.004l-1.671 1.857-.696-.835a.75.75 0 0 0-1.152.96l1.25 1.5a.75.75 0 0 0 1.133.022zm-.055 4.94a.75.75 0 0 1 .055 1.06l-2.25 2.5a.75.75 0 0 1-1.133-.022l-1.25-1.5a.75.75 0 1 1 1.152-.96l.696.835 1.67-1.857a.75.75 0 0 1 1.06-.056"/><path fill="currentColor" fill-rule="evenodd" d="M14.955.5c-.74 0-1.4.465-1.648 1.161l-.3.839h-1.756c-.88 0-1.612.651-1.733 1.5H7.75A3.25 3.25 0 0 0 4.5 7.25v20.5A3.25 3.25 0 0 0 7.75 31h16.5a3.25 3.25 0 0 0 3.25-3.25V7.25A3.25 3.25 0 0 0 24.25 4h-1.768a1.75 1.75 0 0 0-1.733-1.5h-1.756l-.3-.839A1.75 1.75 0 0 0 17.045.5zm-.236 1.666A.25.25 0 0 1 14.955 2h2.09c.106 0 .2.066.236.166l.477 1.336a.75.75 0 0 0 .706.498h2.285c.139 0 .251.113.251.25v1.5a.25.25 0 0 1-.25.25h-9.5a.25.25 0 0 1-.25-.25v-1.5c0-.137.112-.25.251-.25h2.285c.317 0 .6-.2.706-.498zM26 7.25a1.75 1.75 0 0 0-1.75-1.75H22.5v.25a1.75 1.75 0 0 1-1.75 1.75h-9.5A1.75 1.75 0 0 1 9.5 5.75V5.5H7.75A1.75 1.75 0 0 0 6 7.25v20.5c0 .966.784 1.75 1.75 1.75h16.5A1.75 1.75 0 0 0 26 27.75z" clip-rule="evenodd"/></svg>
